img/svg/circle2.svg

<svg width="212" height="80" viewBox="0 0 212 80" fill="none" xmlns="http://www.w3.org/2000/svg">
<circle cx="86" cy="50" r="30" fill="#CF2D1E"/>
<path d="M91.2941 35C96.6545 35 101 39.3455 101 44.7059C101 50.0663 96.6545 54.4118 91.2941 54.4118C90.8068 54.4118 90.4118 54.8068 90.4118 55.2941C90.4118 55.7273 90.7239 56.0875 91.1355 56.1623L91.2941 56.1765H101V65H91.2941C85.9337 65 81.5882 60.6545 81.5882 55.2941C81.5882 49.9337 85.9337 45.5882 91.2941 45.5882C91.7814 45.5882 92.1765 45.1932 92.1765 44.7059C92.1765 44.2727 91.8643 43.9125 91.4527 43.8377L91.2941 43.8235H80.7059C80.2727 43.8235 79.9125 44.1357 79.8377 44.5473L79.8235 44.7059V65H71V44.7059C71 39.4762 75.1361 35.2126 80.3155 35.0077L80.7059 35H91.2941Z" fill="white"/>
<circle cx="20" cy="60" r="20" fill="#CF2D1E"/>
<path d="M23.5294 50C27.103 50 30 52.897 30 56.4706C30 60.0442 27.103 62.9412 23.5294 62.9412C23.2045 62.9412 22.9412 63.2045 22.9412 63.5294C22.9412 63.8182 23.1493 64.0584 23.4237 64.1082L23.5294 64.1176H30V70H23.5294C19.9558 70 17.0588 67.103 17.0588 63.5294C17.0588 59.9558 19.9558 57.0588 23.5294 57.0588C23.8543 57.0588 24.1176 56.7955 24.1176 56.4706C24.1176 56.1818 23.9096 55.9416 23.6351 55.8918L23.5294 55.8824H16.4706C16.1818 55.8824 15.9416 56.0904 15.8918 56.3649L15.8824 56.4706V70H10V56.4706C10 52.9841 12.7574 50.1417 16.2103 50.0051L16.4706 50H23.5294Z" fill="white"/>
<circle cx="172" cy="40" r="40" fill="#CF2D1E"/>
<path d="M179.059 20C186.206 20 192 25.794 192 32.9412C192 40.0884 186.206 45.8824 179.059 45.8824C178.409 45.8824 177.882 46.4091 177.882 47.0588C177.882 47.6364 178.299 48.1167 178.847 48.2163L179.059 48.2353H192V60H179.059C171.912 60 166.118 54.206 166.118 47.0588C166.118 39.9116 171.912 34.1176 179.059 34.1176C179.709 34.1176 180.235 33.5909 180.235 32.9412C180.235 32.3636 179.819 31.8833 179.27 31.7837L179.059 31.7647H164.941C164.364 31.7647 163.883 32.1809 163.784 32.7297L163.765 32.9412V60H152V32.9412C152 25.9683 157.515 20.2834 164.421 20.0103L164.941 20H179.059Z" fill="white"/>
</svg>

<svg width="212" height="80" fill="none" xmlns="http://www.w3.org/2000/svg"><circle cx="86" cy="50" r="30" fill="#CF2D1E"/><path d="M91.294 35c5.36 0 9.706 4.346 9.706 9.706 0 5.36-4.346 9.706-9.706 9.706a.882.882 0 00-.159 1.75l.16.014H101V65h-9.706c-5.36 0-9.706-4.346-9.706-9.706 0-5.36 4.346-9.706 9.706-9.706a.882.882 0 00.159-1.75l-.159-.014H80.706a.883.883 0 00-.868.723l-.014.159V65H71V44.706c0-5.23 4.136-9.493 9.316-9.698l.39-.008h10.588z" fill="#fff"/><circle cx="20" cy="60" r="20" fill="#CF2D1E"/><path d="M23.53 50a6.47 6.47 0 010 12.941.588.588 0 00-.106 1.167l.105.01H30V70h-6.47a6.47 6.47 0 010-12.941.588.588 0 00.105-1.167l-.106-.01h-7.058a.588.588 0 00-.58.483l-.009.106V70H10V56.47a6.47 6.47 0 016.21-6.465l.26-.005h7.06z" fill="#fff"/><circle cx="172" cy="40" r="40" fill="#CF2D1E"/><path d="M179.059 20C186.206 20 192 25.794 192 32.941c0 7.147-5.794 12.941-12.941 12.941a1.177 1.177 0 00-.212 2.334l.212.02H192V60h-12.941c-7.147 0-12.941-5.794-12.941-12.941 0-7.147 5.794-12.941 12.941-12.941a1.176 1.176 0 00.211-2.334l-.211-.02h-14.118c-.577 0-1.058.417-1.157.966l-.019.211V60H152V32.941c0-6.973 5.515-12.658 12.421-12.93l.52-.011h14.118z" fill="#fff"/></svg>
